packages/katcn/src/icons/svg/maximize.svg

<svg xmlns="http://www.w3.org/2000/svg" fill="none" viewBox="0 0 24 24"><path fill="#000" d="M17.7 22h-2.5c-.6 0-1-.4-1-1s.4-1 1-1h2.5c1.3 0 2.3-1 2.3-2.3v-2.5c0-.6.4-1 1-1s1 .4 1 1v2.5c0 2.4-1.9 4.3-4.3 4.3m-9 0H6.3C3.9 22 2 20.1 2 17.7v-2.5c0-.6.4-1 1-1s1 .4 1 1v2.5C4 19 5 20 6.3 20h2.5c.6 0 1 .4 1 1s-.5 1-1.1 1M3 9.7c-.6 0-1-.4-1-1V6.3C2 3.9 3.9 2 6.3 2h2.5c.6 0 1 .4 1 1s-.4 1-1 1H6.3C5 4 4 5 4 6.3v2.5c0 .5-.4.9-1 .9m18 0c-.6 0-1-.4-1-1V6.3C20 5 19 4 17.7 4h-2.5c-.6 0-1-.4-1-1s.4-1 1-1h2.5C20.1 2 22 3.9 22 6.3v2.5c0 .5-.4.9-1 .9"/></svg>

<svg width="24" height="24" viewBox="0 0 24 24" fill="none" xmlns="http://www.w3.org/2000/svg">
<path d="M17.7 22H15.2C14.6 22 14.2 21.6 14.2 21C14.2 20.4 14.6 20 15.2 20H17.7C19 20 20 19 20 17.7V15.2C20 14.6 20.4 14.2 21 14.2C21.6 14.2 22 14.6 22 15.2V17.7C22 20.1 20.1 22 17.7 22Z" fill="black"/>
<path d="M8.7 22H6.3C3.9 22 2 20.1 2 17.7V15.2C2 14.6 2.4 14.2 3 14.2C3.6 14.2 4 14.6 4 15.2V17.7C4 19 5 20 6.3 20H8.8C9.4 20 9.8 20.4 9.8 21C9.8 21.6 9.3 22 8.7 22Z" fill="black"/>
<path d="M3 9.7C2.4 9.7 2 9.3 2 8.7V6.3C2 3.9 3.9 2 6.3 2H8.8C9.4 2 9.8 2.4 9.8 3C9.8 3.6 9.4 4 8.8 4H6.3C5 4 4 5 4 6.3V8.8C4 9.3 3.6 9.7 3 9.7Z" fill="black"/>
<path d="M21 9.7C20.4 9.7 20 9.3 20 8.7V6.3C20 5 19 4 17.7 4H15.2C14.6 4 14.2 3.6 14.2 3C14.2 2.4 14.6 2 15.2 2H17.7C20.1 2 22 3.9 22 6.3V8.8C22 9.3 21.6 9.7 21 9.7Z" fill="black"/>
</svg>
